!!!COM: Bach, Johann Sebastian
!!!CDT: 1685///-1750///
!!!CNT@EN: German
!!!OTL: Bour&eacute;e I from Cello Suite No. 4 in E-flat Major, BWV 1010
!!!OPR: Cello Suite No. 4 in E-flat Major, BWV 1010
!!!OMD: Bour&eacute;e I
!!!OMV: 5
!!!ODT: 1723///
!!!SCT: BWV 1010
!!!SCA: Thematisch-systematisches Verzeichnis der musikalischen Werke Johann Sebastian Bach: Bach-Werke-Verzeichnis (Schmieder)
**kern
*Icello
*>[A,A,B,B]
*>norep[A,B]
*>A
*clefF4
*k[b-e-a-]
*M2/2
(16E-\LL
16F\
16G\
16A-\JJ
=1
4B-\)
8c\L
8A-\J
4B-\
8c\L
8G\J
=2
4A-\
(4F\
4FF/)
(16D\LL
16E-\
16F\
16G\JJ
=3
4A-\)
8B-\L
8G\J
4A-\
8B-\L
8F\J
=4
4G\
(4E-\
4EE-/)
(16E-\LL
16F\
16G\
16A-\JJ
=5
4B-\)
(16BB-/LL
16C/
16D/
16E-/JJ
4F\)
4A-\
=6
(8A-\L
8G\)
8F\
8E-\J
4F\
(16E-\LL
16F\
16G\
16A-\JJ
=7
4B-\)
(16BB-/LL
16C/
16D/
16E-/JJ
4F\)
4A-\
=8
(8A-\L
8G\)
8F\
8E-\J
4F\
(16F\LL
16G\
16An\
16B-\JJ
=9
4c\)
(16An\LL
16B-\
16c\
16d\JJ
4e-\)
(16F\LL
16G\
16A\
16B-\JJ
=10
4c\)
(16An\LL
16B-\
16c\
16d\JJ
4e-\)
8d\L
8c\J
=11
8d\L
8B-\
8G\
8B-\J
8E-\L
8c\
8F\
8An\J
=12
4B-\
4F\
4BB-/
=:|!|:
*>B
(16BB-/LL
16C/
16D/
16E-/JJ
=13
4F\)
8G\L
8E-\J
4F\
8B-\L
8F\J
=14
4G\
4E-\
4EE-/
(16A-\LL
16G\
16F\
16E-\JJ
=15
4D\)
(16F\LL
16E-\
16D\
16C\JJ
4BBn/)
(16D/LL
16C/
16BB/
16AAn/JJ
=16
8GG\L
8D\)
8F\
8Bn\J
4d\
(16G\LL
16F\
16E-\
16D\JJ
=17
4E-\)
(16CC/LL
16DD/
16EE-/
16FF/JJ
4GG/)
(16d\LL
16c\
16Bn\
16An\JJ
=18
4Bn\)
(16GG/LL
16AAn/
16BBn/
16C/JJ
4D\)
(16g\LL
16f\
16e-\
16d\JJ
=19
4e-\)
(16e-\LL
16d\
16c\
16Bn\JJ
4c\)
(16c\LL
16B-\
16A-\
16G\JJ
=20
4A-\)
(16A-\LL
16G\
16F\
16E-\JJ
4D\)
8c\L
8Bn\J
=21
8c\L
8A-\
8F\
8A-\J
8D\L
8c\
8G\
8Bn\J
=22
4c\
4GG/
4CC/
(16C\LL
16D\
16En\
16F\JJ
=23
4G\)
8A-\L
8F\J
4G\
8c\L
8G\J
=24
(8B-\L
8A-\
8G\
8F\J)
(8e-\L
8d\
8c\
8B-\J)
=25
4e-\
(16E-\LL
16F\
16G\
16A-\JJ
4B-\)
4c\
=26
(8E-\L
8D\)
8C\
8D\J
4BB-/
(16BB-/LL
16C/
16D/
16E-/JJ
=27
4F\)
(16D\LL
16E-\
16F\
16G\JJ
4A-\)
(16BB-/LL
16C/
16D/
16E-/JJ
=28
4F\)
(16D\LL
16E-\
16F\
16G\JJ
4A-\)
(16E-\LL
16F\
16G\
16A-\JJ
=29
4B-\)
(16G\LL
16A-\
16B-\
16c\JJ
4d-\)
(16E-\LL
16F\
16G\
16A-\JJ
=30
4B-\)
(16G\LL
16A-\
16B-\
16c\JJ
4d-\)
8c\L
8B-\J
=31
8c\L
8B-\
8B-\
8A-\J
8B-\L
8G\
8GG\
(16G\L
16A-\JJ
=32
8B-\L)
(16G\L
16A-\J
8B-\
16A-\L
16G\JJ)
(8A-\L
8F\)
8FF\
8A-\J
=33
(16G\LL
16F\
16E-\
16D\J)
8E-\
8B-\J
(16G\LL
16F\
16E-\
16D\J)
8E-\
8e-\J
=34
(16A-\LL
16G\
16F\
16G\JJ
16A-\LL
16G\
16F\
16G\JJ)
(16A-\LL
16G\
16F\
16E-\JJ
16D/LL
16C/
16BB-/
16AA-/JJ)
=35
(8GG\L
8E-\)
8c\
8A-\J
4B-\
8c\L
8G\J
=36
4A-\
4F\
4FF/
(16c\LL
16B-\
16A-\
16G\JJ
=37
4F\)
(16A-\LL
16G\
16F\
16E-\JJ
4D\)
(16F\LL
16E-\
16D\
16C\JJ
=38
8BB-\L
8D\)
8F\
8A-\J
4f\
(16e-\LL
16d\
16c\
16B-\JJ
=39
4e-\)
(16E-\LL
16F\
16G\
16A-\JJ
4B-\)
4c\
=40
(8E-\L
8D\)
8C\
8D\J
4BB-/
(16e-\LL
16d\
16c\
16B-\JJ
=41
4e-\)
(16E-\LL
16F\
16G\
16A-\JJ
4B-\)
4c\
=42
(16d-\LL
16c\J
8B-\J
4c\)
(16B-\LL
16A-\
16B-\
16A-\JJ
4G\)
=43
(16A-\LL
16G\J
8F\J
4G\)
(16F\LL
16E-\
16F\
16E-\JJ
4D\)
=44
8E-/L
8BB-/
8GG/
8BB-/J
4EE-/
(16BB-/LL
16C/
16D/
16E-/JJ
=45
4F\)
(16D\LL
16E-\
16F\
16G\JJ
4A-\)
(16BB-/LL
16C/
16D/
16E-/JJ
=46
4F\)
(16D\LL
16E-\
16F\
16G\JJ
4A-\)
8G\L
8F\J
=47
8G\L
8B-\
8e-\
8G\J
8F\L
8E-\
8BB-\
8d\J
=48
*^
2.G/ 2.e-/	4EE-\ 4BB-\
.	2r
*v	*v
==:|!
*-
!!!ENC: Craig Stuart Sapp
!!!END: 2004/12/29/
